app/public/logos/assethub.svg

<svg xmlns="http://www.w3.org/2000/svg" width="350pt" height="350pt" style="isolation:isolate" viewBox="0 0 350 350"><defs><clipPath id="a"><path d="M0 0h350v350H0z"/></clipPath></defs><g clip-path="url(#a)"><path d="M0 0h350v350H0z" style="fill:#321c46"/><path fill="#FFF" d="M242.921 215.151h-37.284l-7.004-17.097h-47.321l-7.005 17.097h-37.283l44.619-101.646h46.604zm-67.893-75.228-12.355 30.334h24.654z"/><circle cx="174.972" cy="66.073" r="25.867" fill="#E6007A" vector-effect="non-scaling-stroke"/><circle cx="174.972" cy="283.927" r="25.867" fill="#E6007A" vector-effect="non-scaling-stroke"/><circle cx="79.448" cy="117.862" r="25.867" fill="#E6007A" vector-effect="non-scaling-stroke"/><circle cx="270.552" cy="117.862" r="25.867" fill="#E6007A" vector-effect="non-scaling-stroke"/><circle cx="79.448" cy="233.021" r="25.867" fill="#E6007A" vector-effect="non-scaling-stroke"/><circle cx="270.552" cy="233.021" r="25.867" fill="#E6007A" vector-effect="non-scaling-stroke"/></g></svg>

<?xml version="1.0" encoding="UTF-8" standalone="no"?><!-- Generator: Gravit.io --><svg xmlns="http://www.w3.org/2000/svg" xmlns:xlink="http://www.w3.org/1999/xlink" style="isolation:isolate" viewBox="0 0 350 350" width="350pt" height="350pt"><defs><clipPath id="_clipPath_vBdYO17jHNfWutky1n6TNNEcLZCFMapk"><rect width="350" height="350"/></clipPath></defs><g clip-path="url(#_clipPath_vBdYO17jHNfWutky1n6TNNEcLZCFMapk)"><rect width="350" height="350" style="fill:rgb(50,28,70)"/><g><g><path d=" M 242.921 215.151 L 205.637 215.151 L 198.633 198.054 L 151.312 198.054 L 144.307 215.151 L 107.024 215.151 L 151.643 113.505 L 198.247 113.505 L 242.921 215.151 Z  M 175.028 139.923 L 162.673 170.257 L 187.327 170.257 L 175.028 139.923 Z " fill="rgb(255,255,255)"/><circle vector-effect="non-scaling-stroke" cx="174.9724235739049" cy="66.07311692404663" r="25.866687677277014" fill="rgb(230,0,122)"/><circle vector-effect="non-scaling-stroke" cx="174.9724235739049" cy="283.92688307595336" r="25.866687677277014" fill="rgb(230,0,122)"/><circle vector-effect="non-scaling-stroke" cx="79.44768358020801" cy="117.86164513079108" r="25.866687677277028" fill="rgb(230,0,122)"/><circle vector-effect="non-scaling-stroke" cx="270.5523164197921" cy="117.86164513079108" r="25.866687677277014" fill="rgb(230,0,122)"/><circle vector-effect="non-scaling-stroke" cx="79.44768358020801" cy="233.02080050425468" r="25.866687677277028" fill="rgb(230,0,122)"/><circle vector-effect="non-scaling-stroke" cx="270.5523164197921" cy="233.02080050425468" r="25.866687677277014" fill="rgb(230,0,122)"/></g></g></g></svg>
